berloni/img/calc-modal-img.svg

<svg width="305" height="238" viewBox="0 0 305 238" fill="none" xmlns="http://www.w3.org/2000/svg">
<path fill-rule="evenodd" clip-rule="evenodd" d="M42.7705 76.4244C46.0029 72.0789 51.1843 61.0922 49.314 48.5802C48.0527 40.1424 43.8759 34.0674 40.2774 28.8336C36.3135 23.0683 33.0514 18.3237 35.1613 12.5662C39.1867 1.58199 59.3787 1.39554 62.3074 8.39427C62.8697 9.73825 62.745 13.2441 62.5749 18.0227C62.0221 33.5531 60.9908 62.5263 81.5153 74.4171C88.0081 74.6753 93.9466 75.3808 98.6724 76.7368C102.076 77.7134 104.042 80.9825 104.154 84.5215C105.156 116.242 105.839 172.088 101.613 180.381C97.9962 187.478 56.8017 178.143 40.873 174.233C37.0584 173.296 34.2213 170.167 33.5721 166.293L20.7107 89.5462C19.8053 84.1438 23.3944 79.0407 28.8143 78.2468C32.676 77.6812 37.4653 77.0314 42.7705 76.4244Z" fill="#A19B9B"/>
<path d="M39.9753 158.331L30.2856 98.8806C29.4101 93.5091 32.9755 88.4448 38.361 87.6602C52.2303 85.6397 77.6625 82.7557 91.6417 86.2495C95.0764 87.1079 97.0622 90.3837 97.1598 93.9227C97.876 119.893 98.2426 164.196 94.8711 170.861C92.0383 176.461 60.8902 169.601 47.2989 166.306C43.4673 165.376 40.6096 162.222 39.9753 158.331Z" fill="white" stroke="#A19B9B" stroke-width="3"/>
<path d="M36.3966 162.638L25.1545 94.585C24.2647 89.1986 27.8536 84.1137 33.2555 83.3231C48.725 81.0588 78.8438 77.5653 94.7198 81.8481C98.1382 82.7703 100.108 86.0464 100.213 89.5854C101.065 118.422 101.577 168.457 97.7828 175.932C94.562 182.277 58.4702 174.201 43.6975 170.593C39.8742 169.66 37.0381 166.521 36.3966 162.638Z" stroke="white" stroke-width="3"/>
<circle cx="53.9974" cy="114.997" r="2.5" transform="rotate(12.9661 53.9974 114.997)" fill="#A19B9B"/>
<circle cx="78.9974" cy="113.997" r="2.5" transform="rotate(12.9661 78.9974 113.997)" fill="#A19B9B"/>
<path d="M41.6127 104.483C41.7858 100.76 47.9789 94.6609 54.8773 100.354" stroke="#A19B9B" stroke-width="2" stroke-linecap="round" stroke-linejoin="round"/>
<path d="M70.3923 99.8215C71.5141 94.949 80.0128 92.8011 83.7339 99.8149" stroke="#A19B9B" stroke-width="2" stroke-linecap="round" stroke-linejoin="round"/>
<circle cx="50.0384" cy="16.6336" r="6.5" transform="rotate(12.9661 50.0384 16.6336)" fill="white"/>
<path d="M50.1353 105.889C43.6283 105.345 46.2894 116.064 49.0625 123.184C49.5285 124.38 51.0082 124.756 52.1865 124.247C53.9883 123.468 55.8024 123.259 57.3197 123.317C58.7599 123.372 60.1982 122.233 59.9778 120.809C59.043 114.768 56.2702 106.402 50.1353 105.889Z" stroke="#A19B9B" stroke-width="2"/>
<path d="M78.4603 104.417C72.6765 101.866 71.6745 112.562 71.9319 120.034C71.9763 121.324 73.2624 122.168 74.5501 122.075C76.3824 121.943 78.0526 122.301 79.3931 122.809C80.7417 123.32 82.4772 122.713 82.7339 121.294C83.8 115.4 83.9129 106.821 78.4603 104.417Z" stroke="#A19B9B" stroke-width="2"/>
<path d="M84.5812 145.161C79.963 157.823 62.2325 159.043 53.8671 148.514C59.4474 151.284 71.7164 155.129 76.1503 148.351" stroke="#A19B9B" stroke-width="2" stroke-linecap="round" stroke-linejoin="round"/>
<path d="M203.166 171.029L227.049 143.028H210.578L194.931 136.852L203.166 171.029Z" fill="#A19B9B"/>
<path d="M195.655 130.35L215.086 33.1516C216.869 24.2313 225.546 18.4456 234.466 20.2289C243.386 22.0121 249.172 30.689 247.389 39.6093L227.958 136.807C226.875 142.223 221.607 145.736 216.192 144.653L203.5 142.116C198.085 141.033 194.572 135.765 195.655 130.35Z" fill="#A19B9B"/>
<path d="M213.049 36.3777C215.931 41.1139 229.932 49.5546 247.638 43.482" stroke="white" stroke-width="4" stroke-linecap="round" stroke-linejoin="round"/>
<path d="M211.402 44.6133C214.422 49.2657 229.089 57.557 247.638 51.5919" stroke="white" stroke-width="4" stroke-linecap="round" stroke-linejoin="round"/>
<path d="M194.107 134.769C197.127 139.421 211.794 147.712 230.343 141.747" stroke="white" stroke-width="4" stroke-linecap="round" stroke-linejoin="round"/>
<path d="M198.509 157.828C198.509 157.828 206.46 163.593 213.872 161.534" stroke="white" stroke-width="4" stroke-linecap="round" stroke-linejoin="round"/>
<path d="M147 187H278.75C292.143 187 303 197.857 303 211.25V211.25C303 224.643 292.143 235.5 278.75 235.5H73" stroke="#A19B9B" stroke-width="4" stroke-linecap="round" stroke-linejoin="round"/>
</svg>

<svg width="305" height="238" fill="none" xmlns="http://www.w3.org/2000/svg"><path fill-rule="evenodd" clip-rule="evenodd" d="M42.77 76.424c3.233-4.345 8.414-15.332 6.544-27.844-1.261-8.438-5.438-14.513-9.037-19.746-3.964-5.766-7.226-10.51-5.116-16.268C39.187 1.582 59.38 1.396 62.307 8.394c.563 1.344.438 4.85.268 9.629-.553 15.53-1.584 44.503 18.94 56.394 6.493.258 12.432.964 17.157 2.32 3.404.976 5.37 4.246 5.482 7.785 1.002 31.72 1.685 87.566-2.541 95.859-3.617 7.097-44.811-2.238-60.74-6.148-3.815-.937-6.652-4.066-7.3-7.94L20.71 89.546c-.906-5.402 2.683-10.505 8.103-11.3a450.103 450.103 0 0 1 13.956-1.822z" fill="#A19B9B"/><path d="M39.975 158.331l-9.69-59.45c-.875-5.372 2.69-10.436 8.076-11.22 13.87-2.021 39.301-4.905 53.28-1.412 3.435.859 5.421 4.135 5.519 7.674.716 25.97 1.083 70.273-2.289 76.938-2.833 5.6-33.98-1.26-47.572-4.555-3.832-.93-6.69-4.084-7.324-7.975z" fill="#fff" stroke="#A19B9B" stroke-width="3"/><path d="M36.397 162.638L25.155 94.585c-.89-5.386 2.699-10.471 8.1-11.262 15.47-2.264 45.589-5.758 61.465-1.475 3.418.922 5.388 4.198 5.493 7.737.852 28.837 1.364 78.872-2.43 86.347-3.221 6.345-39.313-1.731-54.086-5.339-3.823-.933-6.659-4.072-7.3-7.955z" stroke="#fff" stroke-width="3"/><circle cx="53.997" cy="114.997" r="2.5" transform="rotate(12.966 53.997 114.997)" fill="#A19B9B"/><circle cx="78.997" cy="113.997" r="2.5" transform="rotate(12.966 78.997 113.997)" fill="#A19B9B"/><path d="M41.613 104.483c.173-3.723 6.366-9.822 13.264-4.129M70.392 99.822c1.122-4.873 9.62-7.02 13.342-.007" stroke="#A19B9B" stroke-width="2" stroke-linecap="round" stroke-linejoin="round"/><circle cx="50.038" cy="16.634" r="6.5" transform="rotate(12.966 50.038 16.634)" fill="#fff"/><path d="M50.135 105.889c-6.507-.544-3.846 10.175-1.072 17.295.465 1.196 1.945 1.572 3.123 1.063 1.802-.779 3.616-.988 5.134-.93 1.44.055 2.878-1.084 2.658-2.508-.935-6.041-3.708-14.407-9.843-14.92zM78.46 104.417c-5.783-2.551-6.785 8.145-6.528 15.617.044 1.29 1.33 2.134 2.618 2.041 1.832-.132 3.503.226 4.843.734 1.349.511 3.084-.096 3.34-1.515 1.067-5.894 1.18-14.473-4.273-16.877z" stroke="#A19B9B" stroke-width="2"/><path d="M84.581 145.161c-4.618 12.662-22.349 13.882-30.714 3.353 5.58 2.77 17.85 6.615 22.283-.163" stroke="#A19B9B" stroke-width="2" stroke-linecap="round" stroke-linejoin="round"/><path d="M203.166 171.029l23.883-28.001h-16.471l-15.647-6.176 8.235 34.177z" fill="#A19B9B"/><path d="M195.655 130.35l19.431-97.198c1.783-8.92 10.46-14.706 19.38-12.923 8.92 1.783 14.706 10.46 12.923 19.38l-19.431 97.198c-1.083 5.416-6.351 8.929-11.766 7.846l-12.692-2.537c-5.415-1.083-8.928-6.351-7.845-11.766z" fill="#A19B9B"/><path d="M213.049 36.378c2.882 4.736 16.883 13.177 34.589 7.104M211.402 44.613c3.02 4.653 17.687 12.944 36.236 6.979M194.107 134.769c3.02 4.652 17.687 12.943 36.236 6.978M198.509 157.828s7.951 5.765 15.363 3.706" stroke="#fff" stroke-width="4" stroke-linecap="round" stroke-linejoin="round"/><path d="M147 187h131.75c13.393 0 24.25 10.857 24.25 24.25v0c0 13.393-10.857 24.25-24.25 24.25H73" stroke="#A19B9B" stroke-width="4" stroke-linecap="round" stroke-linejoin="round"/></svg>
